X:8
T:Auld Donald
M:4/4
C:Trad
K:D
f2|A2AB d2df|edef edBd|A2AB defg|f2e2 e2a2|\
   A2AB d2df|edef edBd|A2a2 efga|f2d2 d2:|
fg|a2ab afde|fedB A2fg|a2ab afde|f2e2 e2fg|\
   a2ab afde|fedc BcdB|A2a2 efga|f2d2 d2:|

